img/s_launcher.svg

<?xml version="1.0" encoding="UTF-8" standalone="no"?>
<!-- Created with Inkscape (http://www.inkscape.org/) -->

<svg
   xmlns:osb="http://www.openswatchbook.org/uri/2009/osb"
   xmlns:dc="http://purl.org/dc/elements/1.1/"
   xmlns:cc="http://creativecommons.org/ns#"
   xmlns:rdf="http://www.w3.org/1999/02/22-rdf-syntax-ns#"
   xmlns:svg="http://www.w3.org/2000/svg"
   xmlns="http://www.w3.org/2000/svg"
   xmlns:sodipodi="http://sodipodi.sourceforge.net/DTD/sodipodi-0.dtd"
   xmlns:inkscape="http://www.inkscape.org/namespaces/inkscape"
   width="32px"
   height="32px"
   viewBox="0 0 32 32"
   version="1.1"
   id="SVGRoot"
   inkscape:export-filename="/mnt/naboo/fox/public_html/books/img/ic_launcher_web.png"
   inkscape:export-xdpi="1536"
   inkscape:export-ydpi="1536"
   inkscape:version="0.92.3 (2405546, 2018-03-11)"
   sodipodi:docname="s_launcher.svg">
  <sodipodi:namedview
     id="base"
     pagecolor="#ffffff"
     bordercolor="#666666"
     borderopacity="1.0"
     inkscape:pageopacity="0.0"
     inkscape:pageshadow="2"
     inkscape:zoom="11.313708"
     inkscape:cx="16"
     inkscape:cy="16.050501"
     inkscape:document-units="px"
     inkscape:current-layer="layer1"
     showgrid="false"
     inkscape:window-width="1920"
     inkscape:window-height="1170"
     inkscape:window-x="0"
     inkscape:window-y="0"
     inkscape:window-maximized="0"
     inkscape:grid-bbox="true"
     inkscape:snap-others="false"
     inkscape:object-nodes="false"
     inkscape:snap-nodes="false"
     showguides="true"
     inkscape:guide-bbox="true">
    <sodipodi:guide
       position="25.04067,26.055832"
       orientation="0,1"
       id="guide2064"
       inkscape:locked="false" />
    <sodipodi:guide
       position="39.917732,5.937131"
       orientation="0,1"
       id="guide2068"
       inkscape:locked="false" />
    <sodipodi:guide
       position="4.5475897,30.759392"
       orientation="1,0"
       id="guide2070"
       inkscape:locked="false" />
    <sodipodi:guide
       position="27.41186,13.07432"
       orientation="1,0"
       id="guide2073"
       inkscape:locked="false" />
  </sodipodi:namedview>
  <defs
     id="defs815">
    <linearGradient
       id="linearGradient1579"
       osb:paint="solid">
      <stop
         style="stop-color:#00e0ca;stop-opacity:1;"
         offset="0"
         id="stop1577" />
    </linearGradient>
    <filter
       id="filter4222-2"
       inkscape:label="Drop Shadow"
       style="color-interpolation-filters:sRGB">
      <feFlood
         id="feFlood4224-7"
         result="flood"
         flood-color="rgb(0,0,0)"
         flood-opacity="0.321569" />
      <feComposite
         id="feComposite4226-0"
         result="composite1"
         operator="in"
         in2="SourceGraphic"
         in="flood" />
      <feGaussianBlur
         id="feGaussianBlur4228-9"
         result="blur"
         stdDeviation="2"
         in="composite1" />
      <feOffset
         id="feOffset4230-3"
         result="offset"
         dy="0"
         dx="0" />
      <feComposite
         id="feComposite4232-6"
         result="composite2"
         operator="over"
         in2="offset"
         in="SourceGraphic" />
    </filter>
    <clipPath
       clipPathUnits="userSpaceOnUse"
       id="clipPath2060">
      <circle
         style="fill:#000000;fill-opacity:1;stroke:none;stroke-width:6.02456713;stroke-miterlimit:4;stroke-dasharray:none;stroke-opacity:0.32142861"
         id="circle2062"
         cx="16"
         cy="16"
         r="15.25" />
    </clipPath>
    <clipPath
       clipPathUnits="userSpaceOnUse"
       id="clipPath2075">
      <circle
         r="15.25"
         cy="16"
         cx="16"
         id="circle2077"
         style="fill:#2a0a00;fill-opacity:1;stroke:none;stroke-width:6.02456713;stroke-miterlimit:4;stroke-dasharray:none;stroke-opacity:0.32142861" />
    </clipPath>
  </defs>
  <metadata
     id="metadata818">
    <rdf:RDF>
      <cc:Work
         rdf:about="">
        <dc:format>image/svg+xml</dc:format>
        <dc:type
           rdf:resource="http://purl.org/dc/dcmitype/StillImage" />
        <dc:title />
      </cc:Work>
    </rdf:RDF>
  </metadata>
  <g
     inkscape:groupmode="layer"
     id="layer3"
     inkscape:label="Layer 2"
     sodipodi:insensitive="true">
    <g
       id="g2058"
       clip-path="url(#clipPath2060)">
      <path
         sodipodi:nodetypes="cccccc"
         inkscape:connector-curvature="0"
         id="path4208"
         d="m 22.550481,-3.1332253 10.783511,1.4866724 0.255693,35.5493179 -5.676088,-0.67172 -12.146756,0.101762 z"
         style="fill:#006b61;fill-opacity:1;fill-rule:evenodd;stroke:#000000;stroke-width:0.23986833px;stroke-linecap:butt;stroke-linejoin:miter;stroke-opacity:1" />
      <path
         inkscape:connector-curvature="0"
         id="path4160"
         d="M 15.47976,33.35615 -0.70953,33.43504 -0.89562,-1.2708945 5.52428,-1.4286499 Z"
         style="fill:#006b61;fill-opacity:1;fill-rule:evenodd;stroke:none;stroke-width:0.23986833px;stroke-linecap:butt;stroke-linejoin:miter;stroke-opacity:1" />
      <path
         transform="matrix(0.26051742,0,0,0.22085592,0.31393,-200.16854)"
         sodipodi:nodetypes="cccc"
         inkscape:connector-curvature="0"
         id="path4156"
         d="M 105.13055,930.25404 62.238859,1073.6501 3.9936139,894.70784 c 72.4314871,-13.8184 112.4295161,-6.1365 101.1369361,35.5462 z"
         style="fill:#009688;fill-opacity:1;fill-rule:evenodd;stroke:none;stroke-width:1px;stroke-linecap:butt;stroke-linejoin:miter;stroke-opacity:1;filter:url(#filter4222-2)" />
    </g>
  </g>
  <g
     id="layer1"
     inkscape:groupmode="layer"
     inkscape:label="Layer 1">
    <path
       style="fill:#000000;fill-opacity:0.25098039;stroke:none;stroke-width:0.91927344px;stroke-linecap:butt;stroke-linejoin:miter;stroke-opacity:1"
       d="M 6.0606899,23.391297 14.266909,34.103963 30.534332,32.014972 32.468558,21.220655 26.108345,9.4767025 24.526345,9.0705233 22.431251,5.339972 18.006282,12.816697 15.996337,9.4767025 8.7278277,17.263513 Z"
       id="path3112"
       inkscape:connector-curvature="0"
       sodipodi:nodetypes="ccccccccccc"
       clip-path="url(#clipPath2075)" />
    <rect
       style="fill:#000000;fill-opacity:1;stroke:#000000;stroke-width:0.24566929;stroke-miterlimit:4;stroke-dasharray:none;stroke-opacity:1"
       id="rect845"
       width="7.5805268"
       height="9.3158283"
       x="6.7585421"
       y="9.8064089" />
    <path
       style="fill:#ffffff;fill-opacity:1;stroke:none;stroke-width:0.03779528;stroke-miterlimit:4;stroke-dasharray:none;stroke-opacity:0.7091837"
       d="M 22.430378,5.3393615 17.834675,9.4760803 V 19.589361 l 4.595703,-4.136719 z M 10.940144,8.097174 c -1.7925832,0 -3.7236942,0.3677055 -5.0566407,1.3789063 V 22.952642 c 0,0.229818 0.2311192,0.460938 0.4609375,0.460938 0.091927,0 0.1365882,-0.06445 0.2285156,-0.06445 1.2410192,-0.597528 3.0342411,-1.001954 4.3671876,-1.001953 1.792583,0 3.723695,0.367705 5.056641,1.378906 1.241019,-0.781383 3.491922,-1.378906 5.054687,-1.378906 1.516801,0 3.080205,0.285154 4.367188,0.974609 0.09193,0.04596 0.138541,0.02734 0.230468,0.02734 0.229819,0 0.458985,-0.23112 0.458985,-0.460938 V 9.4760803 C 25.556549,9.0624073 24.959677,8.7879298 24.270222,8.5581115 v 1.8378905 5.05664 5.515625 C 23.259021,20.646522 22.1546,20.50733 21.051472,20.50733 c -1.562765,0 -3.813668,0.597523 -5.054687,1.378906 V 15.452642 11.315924 9.4760803 C 14.663839,8.4648795 12.732727,8.097174 10.940144,8.097174 Z M 8.1667064,11.87647 h 4.8437496 l 0.04688,1.681641 h -0.5 l -0.04688,-0.414063 c -0.02562,-0.211386 -0.102355,-0.393139 -0.230468,-0.546874 -0.121707,-0.160142 -0.326981,-0.240235 -0.615235,-0.240235 h -1.615234 v 2.554688 h 2.316406 v 0.470703 h -2.316406 v 2.873047 h 1.855469 c 0.301065,0 0.517825,-0.07673 0.652344,-0.230469 0.140924,-0.160141 0.227737,-0.345254 0.259765,-0.556641 l 0.06836,-0.414062 h 0.5 l -0.06836,1.68164 H 8.1667064 v -0.402343 h 0.125 c 0.2113863,0 0.3950927,-0.03696 0.5488281,-0.107422 0.1601411,-0.07687 0.2402344,-0.255261 0.2402344,-0.53711 v -4.71875 c 0,-0.301065 -0.076733,-0.489538 -0.2304688,-0.566406 -0.1537354,-0.08327 -0.3408018,-0.125 -0.5585937,-0.125 h -0.125 z"
       id="path1403"
       inkscape:connector-curvature="0" />
  </g>
</svg>

<?xml version="1.0" encoding="UTF-8" standalone="no"?>
<!-- Created with Inkscape (http://www.inkscape.org/) -->

<svg
   xmlns:osb="http://www.openswatchbook.org/uri/2009/osb"
   xmlns:dc="http://purl.org/dc/elements/1.1/"
   xmlns:cc="http://creativecommons.org/ns#"
   xmlns:rdf="http://www.w3.org/1999/02/22-rdf-syntax-ns#"
   xmlns:svg="http://www.w3.org/2000/svg"
   xmlns="http://www.w3.org/2000/svg"
   xmlns:sodipodi="http://sodipodi.sourceforge.net/DTD/sodipodi-0.dtd"
   xmlns:inkscape="http://www.inkscape.org/namespaces/inkscape"
   width="32px"
   height="32px"
   viewBox="0 0 32 32"
   version="1.1"
   id="SVGRoot"
   inkscape:export-filename="/mnt/naboo/fox/public_html/books/img/ic_launcher_web.png"
   inkscape:export-xdpi="1536"
   inkscape:export-ydpi="1536"
   inkscape:version="0.92.3 (2405546, 2018-03-11)"
   sodipodi:docname="s_launcher.svg">
  <sodipodi:namedview
     id="base"
     pagecolor="#ffffff"
     bordercolor="#666666"
     borderopacity="1.0"
     inkscape:pageopacity="0.0"
     inkscape:pageshadow="2"
     inkscape:zoom="11.313708"
     inkscape:cx="16"
     inkscape:cy="16.236405"
     inkscape:document-units="px"
     inkscape:current-layer="layer1"
     showgrid="false"
     inkscape:window-width="1920"
     inkscape:window-height="1170"
     inkscape:window-x="0"
     inkscape:window-y="0"
     inkscape:window-maximized="0"
     inkscape:grid-bbox="true"
     inkscape:snap-others="false"
     inkscape:object-nodes="false"
     inkscape:snap-nodes="false"
     showguides="true"
     inkscape:guide-bbox="true">
    <sodipodi:guide
       position="25.04067,26.055832"
       orientation="0,1"
       id="guide2064"
       inkscape:locked="false" />
    <sodipodi:guide
       position="39.917732,5.937131"
       orientation="0,1"
       id="guide2068"
       inkscape:locked="false" />
    <sodipodi:guide
       position="4.5475897,30.759392"
       orientation="1,0"
       id="guide2070"
       inkscape:locked="false" />
    <sodipodi:guide
       position="27.41186,13.07432"
       orientation="1,0"
       id="guide2073"
       inkscape:locked="false" />
  </sodipodi:namedview>
  <defs
     id="defs815">
    <linearGradient
       id="linearGradient1579"
       osb:paint="solid">
      <stop
         style="stop-color:#00e0ca;stop-opacity:1;"
         offset="0"
         id="stop1577" />
    </linearGradient>
    <filter
       id="filter4222-2"
       inkscape:label="Drop Shadow"
       style="color-interpolation-filters:sRGB">
      <feFlood
         id="feFlood4224-7"
         result="flood"
         flood-color="rgb(0,0,0)"
         flood-opacity="0.321569" />
      <feComposite
         id="feComposite4226-0"
         result="composite1"
         operator="in"
         in2="SourceGraphic"
         in="flood" />
      <feGaussianBlur
         id="feGaussianBlur4228-9"
         result="blur"
         stdDeviation="2"
         in="composite1" />
      <feOffset
         id="feOffset4230-3"
         result="offset"
         dy="0"
         dx="0" />
      <feComposite
         id="feComposite4232-6"
         result="composite2"
         operator="over"
         in2="offset"
         in="SourceGraphic" />
    </filter>
    <clipPath
       clipPathUnits="userSpaceOnUse"
       id="clipPath2060">
      <circle
         style="fill:#000000;fill-opacity:1;stroke:none;stroke-width:6.02456713;stroke-miterlimit:4;stroke-dasharray:none;stroke-opacity:0.32142861"
         id="circle2062"
         cx="16"
         cy="16"
         r="15.25" />
    </clipPath>
    <clipPath
       clipPathUnits="userSpaceOnUse"
       id="clipPath2075">
      <circle
         r="15.25"
         cy="16"
         cx="16"
         id="circle2077"
         style="fill:#2a0a00;fill-opacity:1;stroke:none;stroke-width:6.02456713;stroke-miterlimit:4;stroke-dasharray:none;stroke-opacity:0.32142861" />
    </clipPath>
  </defs>
  <metadata
     id="metadata818">
    <rdf:RDF>
      <cc:Work
         rdf:about="">
        <dc:format>image/svg+xml</dc:format>
        <dc:type
           rdf:resource="http://purl.org/dc/dcmitype/StillImage" />
        <dc:title />
      </cc:Work>
    </rdf:RDF>
  </metadata>
  <g
     inkscape:groupmode="layer"
     id="layer3"
     inkscape:label="Layer 2"
     sodipodi:insensitive="true">
    <g
       id="g2058"
       clip-path="url(#clipPath2060)">
      <path
         sodipodi:nodetypes="cccccc"
         inkscape:connector-curvature="0"
         id="path4208"
         d="m 22.550481,-3.1332253 10.783511,1.4866724 0.255693,35.5493179 -5.676088,-0.67172 -12.146756,0.101762 z"
         style="fill:#006b61;fill-opacity:1;fill-rule:evenodd;stroke:#000000;stroke-width:0.23986833px;stroke-linecap:butt;stroke-linejoin:miter;stroke-opacity:1" />
      <path
         inkscape:connector-curvature="0"
         id="path4160"
         d="M 15.47976,33.35615 -0.70953,33.43504 -0.89562,-1.2708945 5.52428,-1.4286499 Z"
         style="fill:#006b61;fill-opacity:1;fill-rule:evenodd;stroke:none;stroke-width:0.23986833px;stroke-linecap:butt;stroke-linejoin:miter;stroke-opacity:1" />
      <path
         transform="matrix(0.26051742,0,0,0.22085592,0.31393,-200.16854)"
         sodipodi:nodetypes="cccc"
         inkscape:connector-curvature="0"
         id="path4156"
         d="M 105.13055,930.25404 62.238859,1073.6501 3.9936139,894.70784 c 72.4314871,-13.8184 112.4295161,-6.1365 101.1369361,35.5462 z"
         style="fill:#009688;fill-opacity:1;fill-rule:evenodd;stroke:none;stroke-width:1px;stroke-linecap:butt;stroke-linejoin:miter;stroke-opacity:1;filter:url(#filter4222-2)" />
    </g>
  </g>
  <g
     id="layer1"
     inkscape:groupmode="layer"
     inkscape:label="Layer 1">
    <path
       style="fill:#000000;fill-opacity:0.25098039;stroke:none;stroke-width:0.91927344px;stroke-linecap:butt;stroke-linejoin:miter;stroke-opacity:1"
       d="M 6.0606899,23.391297 14.266909,34.103963 30.534332,32.014972 32.468558,21.220655 26.108345,9.4767025 24.526345,9.0705233 22.431251,5.339972 18.006282,12.816697 15.996337,9.4767025 8.7278277,17.263513 Z"
       id="path3112"
       inkscape:connector-curvature="0"
       sodipodi:nodetypes="ccccccccccc"
       clip-path="url(#clipPath2075)" />
    <path
       style="fill:#ffffff;fill-opacity:1;stroke:none;stroke-width:0.03779528;stroke-miterlimit:4;stroke-dasharray:none;stroke-opacity:0.7091837"
       d="M 22.429688 5.3398438 L 17.833984 9.4765625 L 17.833984 19.589844 L 22.429688 15.453125 L 22.429688 5.3398438 z M 10.939453 8.0976562 C 9.1468699 8.0976562 7.215759 8.4653617 5.8828125 9.4765625 L 5.8828125 22.953125 C 5.8828125 23.182943 6.1139317 23.414062 6.34375 23.414062 C 6.435677 23.414062 6.4803382 23.349609 6.5722656 23.349609 C 7.8132848 22.752081 9.6065066 22.347655 10.939453 22.347656 C 12.732036 22.347656 14.663148 22.715362 15.996094 23.726562 C 17.237113 22.945179 19.488016 22.347656 21.050781 22.347656 C 22.567582 22.347656 24.130986 22.632811 25.417969 23.322266 C 25.509899 23.368226 25.55651 23.349609 25.648438 23.349609 C 25.878256 23.349609 26.107422 23.11849 26.107422 22.888672 L 26.107422 9.4765625 C 25.555858 9.0628895 24.958986 8.788412 24.269531 8.5585938 L 24.269531 10.396484 L 24.269531 15.453125 L 24.269531 20.96875 C 23.25833 20.647005 22.153909 20.507812 21.050781 20.507812 C 19.488016 20.507812 17.237113 21.105336 15.996094 21.886719 L 15.996094 15.453125 L 15.996094 11.316406 L 15.996094 9.4765625 C 14.663148 8.4653617 12.732036 8.0976563 10.939453 8.0976562 z "
       id="path1403" />
    <text
       xml:space="preserve"
       style="font-style:normal;font-weight:normal;font-size:40px;line-height:1.25;font-family:sans-serif;letter-spacing:0px;word-spacing:0px;fill:#000000;fill-opacity:1;stroke:none;"
       x="6.717515"
       y="19.625631"
       id="text972"><tspan
         sodipodi:role="line"
         id="tspan970"
         x="6.717515"
         y="19.625631"
         style="font-style:normal;font-variant:normal;font-weight:normal;font-stretch:normal;font-size:16px;font-family:'Noto Serif';-inkscape-font-specification:'Noto Serif';fill:#000000;fill-opacity:1;">ε</tspan></text>
  </g>
</svg>
